X: 7711
T: Colliers', The
R: reel
M: 4/4
K: Gmixolydian
||B,G, A,/B,/C D3E|F/{A}F/{E}F GE {FA}FDCF|DG{A}G^F ~G3A|BGAG {A}GFDC|
B,/{D}B,/{A,}B, G,C A,/B,/C DE|{FG}FDGE {FG}FDCF|DG{A}GF DEFC|A,B,CA, {B,D}B,G,~G,2|
B,G, D/D/G, A,/B,/C DE|{FG}FDGE {FG}FDCF|DG~G2 ~G3A|BGAG {A}GFDC|
A,{C}B,{A,}B,G, A,/B,/C DE|{FG}FDGE {FG}FDCF|DG{A}GF DEFC|A,B,CA, G,2zA||
B/{d}B/{A}B Ad BGAF|DG B/B/G DGGA|B/{d}B/{A}B Ad BGAF|[A,3D3](E E{A}F{E}F)G|
Ad{e}dc AB{cd}cA|GcAG {FA}FDCF|DG{A}GF DEFC|A,B,CA, {B,D}B,G,~G,2|
B/{d}B/{A}B Ad BGAF|DG B/B/G DGGA|A{d}B{A}Bd B{d}c{B}cA|{^c}d{e}d{c}d=c AB{cd}cA|
d2 d/d/B {d}cB{cd}cA|GcAG {FA}FDCF|F/F/D GF DEFC|A,B,CA, G,4||

